X:1
T:Highland Laddie
R:march
S:Betsy Hooper's collection
L:1/4
M:4/4
K:D
A/B/ |\
"D"d>efa | "A7"g/f/e/d/ "D"f2 | "Em"fee d/e/ | "A7"feed/B/ |\
"D"d>efa | "A7"g/f/e/d/ "D"f e/f/ | "Bm"d B B A/B/ | "G"dB"Bm"B :|
|: g |\
"D"a>g"A7"f e/f/ | " D"d B/e/ "Bm"f2 | "Em"feed/e/ | "A7"feeg |\
"D"a>g"A7"f e/f/ | "D"d B/e/ "Bm"f e/f/ | "Bm"d B B A/B / | "G"dB"Bm"B :|
